X:1
T:That Great Day of the Lord
T:That Great Day of the Lord
T:Louise J. Strong
T:Louise J. Strong, 1899, alt.
T:Public Domain Courtesy of the Cyber Hymnal™
T:Public Domain Courtesy of the Cyber Hymnal™
C:Louise J. Strong
Z:Public Domain
Z:Courtesy of the Cyber Hymnal™
%%score ( 1 2 ) 3
L:1/8
Q:1/4=115
M:2/2
K:F
V:1 treble 
V:2 treble 
V:3 bass 
V:1
 F2 | [FA]2 [FA]2 [FA]2 [EG]2 | [FA]2 [Fc]2 [FA]2 [CF]2 | [FA]4 [EG]2 [EG]>[EG] | F6 F2 | %5
w: 1.~The|judg- ment day is|draw- ing near, That|great day of the|Lord; The|
w: 2.~How|shall we meet that|dread- ful day, That|great day of the|Lord? When|
w: 3.~Christ|is a ref- uge|for your soul, That|great day of the|Lord; Seek|
 [FA]2 [FA]2 [FA]2 [EG]2 | [FA]2 [Fc]2 [FA]2 [CF]2 | [FA]4 [EG]2 [EG]>[EG] | F6 [FA]2 | %9
w: sum- mons all man-|kind shall hear, That|great day of the|Lord. All|
w: Heav’n and earth shall|flee a- way, That|great day of the|Lord; What|
w: now re- lease from|sin’s con- trol, That|great day of the|Lord; O|
 [Fc]2 [Fc]2 [Fc]2 [FA]2 | [Fc]2 [Fc]2 [FA]2 [CF]2 | [FA]2 [FA]2 [FA]2 [EG]2 | %12
w: pomp and pride and|vaunt- ed power, All|em- pires, thrones of|
w: power can shield the|guilt- y soul, All|scarred and stained by|
w: fly in- to His|pierced em- brace, And|be a sin- ner|
 [FA]2 [Fc]2 [Fc]2 [Fc]2 | [Fd]2 [Fd]2 [Fc]2 [FA]2 | [Gc]2 [Gc]2 [FA]2 [CF]2 | %15
w: earth- ly dower, Shall|per- ish in that|aw- ful hour, That|
w: sin’s con- trol, While|thun- derings of God’s|jus- tice roll? That|
w: saved by grace; With|joy you’ll then be-|hold His face, That|
 [FA]4 [EG]2 [EG]>[EG] | F6 ||"^Refrain" [FA]2 | [Fc]4 [Fc]3 [FA] | [Fc] [FA]3- [FA]2 F2 | %20
w: great day of the|Lord.||||
w: great day of the|Lord.|That|great day is|com- ing, * That|
w: great day of the|Lord.||||
 [FA]4 [EG]3 [EG] | [FA] [Fc]3- [Fc]2 [FA]2 | [Ac]4 [Ac]3 [FA] | [Ac] [FA]3- [FA]2 [CF]2 | %24
w: ||||
w: dark day is|com- ing, * That|dread day is|com- ing, * That|
w: ||||
 [FA]4 [EG]2 [EG]>[EG] | F6 |] %26
w: ||
w: great day of the|Lord.|
w: ||
V:2
 F2 | x8 | x8 | x8 | F6 F2 | x8 | x8 | x8 | F6 x2 | x8 | x8 | x8 | x8 | x8 | x8 | x8 | F6 || x2 | %18
 x8 | x6 F2 | x8 | x8 | x8 | x8 | x8 | F6 |] %26
V:3
 [F,A,]2 | [F,C]2 [F,C]2 [F,C]2 [C,C]2 | [F,C]2 [F,A,]2 [F,C]2 [F,A,]2 | %3
 [C,C]4 [C,B,]2 [C,B,]>[C,B,] | [F,A,]6 [F,A,]2 | [F,C]2 [F,C]2 [F,C]2 [C,C]2 | %6
 [F,C]2 [F,A,]2 [F,C]2 [F,A,]2 | [C,C]4 [C,B,]2 [C,B,]>[C,B,] | [F,A,]6 [F,C]2 | %9
 [F,A,]2 [F,A,]2 [F,A,]2 [F,C]2 | [F,A,]2 [F,A,]2 [F,C]2 [F,A,]2 | [F,C]2 [F,C]2 [F,C]2 [C,C]2 | %12
 [F,C]2 [F,A,]2 [F,A,]2 [F,A,]2 | [B,,B,]2 [B,,B,]2 [F,A,]2 [F,C]2 | [E,C]2 [E,C]2 [F,C]2 [F,A,]2 | %15
 [C,C]4 [C,B,]2 [C,B,]>[C,B,] | [F,A,]6 || [F,C]2 | [F,A,]4 [F,A,]3 [F,A,] | %19
 [F,A,] [F,C]3- [F,C]2 [F,A,]2 | [C,C]4 [C,C]3 [C,C] | [F,C] [F,A,]3- [F,A,]2 [F,C]2 | %22
 [F,F]4 [F,F]3 [F,C] | [F,C] [F,C]3- [F,C]2 [F,A,]2 | [C,C]4 [C,B,]2 [C,B,]>[C,B,] | [F,A,]6 |] %26

